!!!!SEGMENT: pl-cz--ii-246--001-001_anonim--partita-es-allegro.krn
!!!id: 17xx:2184
!!!COM: Anonim
!!!COM-rism: pe30004985
!!!CDT:
!!!CNT:
!!!OTL: Partita Es - Allegro
!!!PDT:
!!!SMS-siglum: PL-CZ
!!!SMS-shelfmark: II-246
!!!NIFC-rismID: 1001012551
!!!URL-scan: http://repozytorium.nifc.pl/skany/pl-cz-nut--ii-246
!!!ONB-nifc: UWAGA: w źródle 2 Partity Es (początkowy nr 001 lub 002). Części 1. Partity: 1. Allegro, 2. Finale. Nast. cz. Allegro należy do 2. Partity
!!!SMS-variant:
!!!SMS-altvar:
**kern	**dynam	**kern	**dynam	**kern	**kern	**dynam	**kern	**kern	**kern
*part7	*part7	*part6	*part6	*part5	*part4	*part4	*part3	*part2	*part1
*staff7	*	*staff6	*	*staff5	*staff4	*	*staff3	*staff2	*staff1
*I"Cornu Secundo.	*	*I"Cornu Primo	*	*I"Fagotto.	*I"Clarinetto Secundo	*	*I"Clarinetto Primo	*I"Picolo Secundo	*I"Picolo Primo
*I'cor 2 in E|b	*	*I'cor 1 in E|b	*	*I'fag	*I'cl 2	*	*I'cl 1	*I'fl. picc 2	*I'fl. picc 1
*clefG2	*	*clefG2	*	*clefF4	*clefG2	*	*clefG2	*clefG2	*clefG2
*ITrd5c9	*	*ITrd5c9	*	*	*ITrd1c2	*	*ITrd1c2	*ITrd0c0	*ITrd0c0
*k[b-e-a-]	*	*k[b-e-a-]	*	*k[b-e-a-]	*k[b-e-a-]	*	*k[b-e-a-]	*k[b-e-a-]	*k[b-e-a-]
*M2/2	*	*M2/2	*	*M2/2	*M2/2	*	*M2/2	*M2/2	*M2/2
*met(c|)	*	*met(c|)	*	*met(c|)	*met(c|)	*	*met(c|)	*met(c|)	*met(c|)
*>[A,A,B,B,]	*	*	*	*	*	*	*	*	*
=1	=1	=1	=1	=1	=1	=1	=1	=1	=1
*>A	*	*	*	*	*	*	*	*	*
!	!	!	!	!LO:TX:t=P:problem:all\right	!LO:TX:t=P:problem:all\right	!	!LO:TX:t=P:problem:all\right	!	!
!LO:TX:rj:a:t=Allegro	!	!LO:TX:a:t=Parthia	!	!LO:TX:a:t=Parthia	!LO:TX:a:t=Parthia	!	!LO:TX:a:t=Parthia	!	!
!LO:TX:a:t=Parthia	!LO:DY:a	!LO:TX:a:t=Allegro	!LO:DY:a	!LO:TX:a:t=Allegro.	!LO:TX:rj:a:t=Allegro	!	!LO:TX:a:t=Allegro	!	!
4E-/	f	4e-\	f	4E-\	4e-/	.	4ee-\	1ryy	1ryy
4E-/	.	4e-\	.	4E-\	4e-/	.	4ee-\	.	.
4E-/	.	4e-\	.	4E-\	4e-/	.	4ee-\	.	.
4r	.	4r	.	8D\L	8d/L	.	8dd\L	.	.
.	.	.	.	8E-\J	8e-/J	.	8ee-\J	.	.
=2	=2	=2	=2	=2	=2	=2	=2	=2	=2
4B-/	.	4f\	.	4F\	4f/	.	4ff\	1ryy	1ryy
4B-/	.	4f\	.	4D\	4d/	.	4dd\	.	.
4B-/	.	4f\	.	4BB-\	4B-/	.	4b-\	.	.
4r	.	4r	.	8r	8r	.	8r	.	.
.	.	.	.	8BB-/	8B-/	.	8b-\	.	.
=3	=3	=3	=3	=3	=3	=3	=3	=3	=3
4B-/	.	4f\	.	4F\	4f/	.	4ff\	1ryy	1ryy
4B-/	.	4f\	.	4F\	4f/	.	4ff\	.	.
4B-/	.	4f\	.	4F\	4f/	.	4ff\	.	.
4r	.	4r	.	8E-\L	8e-/L	.	8ee-\L	.	.
.	.	.	.	8F\J	8f/J	.	8ff\J	.	.
=4	=4	=4	=4	=4	=4	=4	=4	=4	=4
4E-/	.	4e-\	.	4G\	4g/	.	4gg\	1ryy	1ryy
4E-/	.	4e-\	.	4E-\	4e-/	.	4ee-\	.	.
4E-/	.	4e-\	.	4BB-/	4B-/	.	4b-\	.	.
4r	.	4r	.	4r	8r	.	8r	.	.
!	!	!	!	!	!LO:N:vis=4	!	!	!	!
.	.	.	.	.	8B-/	.	8b-\	.	.
=5	=5	=5	=5	=5	=5	=5	=5	=5	=5
!	!	!	!	!LO:TX:t=P:problem:mixed beam	!	!LO:DY:t=p&colon;	!	!	!
4G/	.	4e-\	p	8EE-/L	4g/	p	4ee-\	1ryy	1ryy
.	.	.	<	8E-\	.	.	.	.	.
4G/	.	4e-\	.	8E-\	4g/	.	4ee-\	.	.
.	.	.	.	8E-\J	.	.	.	.	.
*	*	*2\right	*	*	*	*	*	*	*
4G/	.	2e-\	.	8E-\L	2g/	.	4ee-\	.	.
.	.	.	.	8E-\	.	.	.	.	.
4G/	.	.	.	8E-\	.	.	4b-\	.	.
.	.	.	.	8E-\J	.	.	.	.	.
=6	=6	=6	=6	=6	=6	=6	=6	=6	=6
!	!LO:DY:a	!	!	!LO:TX:t=P:problem:mixed beam	!	!	!	!	!
2E-/	f	2e-\	f	8AA-/L	2a-T/	f	4.cc\	1ryy	1ryy
.	.	.	.	8A-\	.	.	.	.	.
.	.	.	.	8A-\	.	.	.	.	.
.	.	.	.	8A-\J	.	.	8aa-\	.	.
!	!	!	!	!LO:TX:t=P:problem:mixed beam	!	!	!	!	!
2E-/	.	2e-\	.	8B-\L	2a-T/	.	8gg\L	.	.
.	.	.	.	8B-\	.	.	8ff\	.	.
.	.	.	.	8BB-/	.	.	8ee-\	.	.
.	.	.	.	8BB-/J	.	.	8dd\J	.	.
!	!	!	!	!LO:LB:g=original	!	!	!	!	!
=7	=7	=7	=7	=7	=7	=7	=7	=7	=7
!	!	!	!	!LO:TX:t=P:problem:mixed beam	!	!	!	!	!
4G/	.	4e-\	p	8EE-/L	4g/	p	4ee-\	1ryy	1ryy
.	.	.	.	8E-\	.	.	.	.	.
4G/	.	4e-\	.	8E-/	4g/	.	4ee-\	.	.
.	.	.	.	8E-\J	.	.	.	.	.
2G/	.	2e-\	.	8E-\L	2g/	.	4ee-\	.	.
.	.	.	.	8E-\	.	.	.	.	.
.	.	.	.	8E-\	.	.	4b-\	.	.
.	.	.	.	8E-\J	.	.	.	.	.
=8	=8	=8	=8	=8	=8	=8	=8	=8	=8
!	!	!	!	!LO:TX:t=P:problem:mixed beam	!	!	!	!	!
2E-/	.	2e-\	f	8AA-/L	1a-/	.	4.cc\	1ryy	1ryy
.	.	.	.	8A-\	.	.	.	.	.
.	.	.	.	8A-\	.	.	.	.	.
.	.	.	.	8A-\J	.	.	8aa-\	.	.
!	!	!	!	!	!	!	!LO:LB:g=original	!	!
!	!	!	!	!LO:TX:t=P:problem:mixed beam	!	!	!	!	!
2E-/	.	2e-\	.	8B-\L	.	.	8gg\L	.	.
.	.	.	.	8B-\	.	.	8ff\	.	.
.	.	.	.	8BB-/	.	.	8ee-\	.	.
.	.	.	.	8BB-/J	.	.	8dd\J	.	.
=9	=9	=9	=9	=9	=9	=9	=9	=9	=9
4E-/	.	4e-\	.	4E-\	4g/	.	4ee-\	1ryy	1ryy
4G/	.	4e-\	.	4EE-/	4g/	.	4ee-\	.	.
4G/	.	4e-\	.	4EE-/	4g/	.	4ee-\	.	.
4r	.	4r	.	4r	4r	.	8r	.	.
.	.	.	.	.	.	.	8b-\	.	.
=10	=10	=10	=10	=10	=10	=10	=10	=10	=10
*2\right	*	*	*	*	*	*	*2\right	*	*
2g\	.	2g\	.	8E-\L	4ee-\	.	2gg\	1ryy	1ryy
.	.	.	.	8G\	.	.	.	.	.
.	.	.	.	8E-\	4ee-\	.	.	.	.
.	.	.	.	8G\J	.	.	.	.	.
2r	.	2r	.	8E-\L	4ee-\	.	8ff\L	.	.
.	.	.	.	8G\	.	.	8ee-\	.	.
.	.	.	.	8E-\	4ee-\	.	8dd\	.	.
.	.	.	.	8G\J	.	.	8cc\J	.	.
!LO:LB:g=original	!	!	!	!	!	!	!	!	!
=11	=11	=11	=11	=11	=11	=11	=11	=11	=11
!LO:TX:a:t=1.	!	!LO:TX:a:t=1.	!	!	!	!	!	!	!
1r	.	1r	.	8E-\L	4ee-\	.	4cc\	1ryy	1ryy
.	.	.	.	8G\	.	.	.	.	.
.	.	.	.	8E-\	4ee-\	.	4cc\	.	.
.	.	.	.	8G\J	.	.	.	.	.
.	.	.	.	8E-\L	4ee-\	.	4cc\	.	.
.	.	.	.	8G\	.	.	.	.	.
.	.	.	.	8E-\	4ee-\	.	4cc\	.	.
.	.	.	.	8G\J	.	.	.	.	.
!	!	!	!	!	!LO:LB:g=original	!	!	!	!
=12	=12	=12	=12	=12	=12	=12	=12	=12	=12
2f\	.	2f\	.	8D\L	4dd\	.	2ff\	1ryy	1ryy
.	.	.	.	8F\	.	.	.	.	.
.	.	.	.	8D\	4dd\	.	.	.	.
.	.	.	.	8F\J	.	.	.	.	.
!	!	!	!	!LO:LB:g=original	!	!	!	!	!
2r	.	2r	.	8D\L	4dd\	.	8ee-\L	.	.
.	.	.	.	8F\	.	.	8dd\	.	.
.	.	.	.	8D\	4dd\	.	8cc\	.	.
.	.	.	.	8F\J	.	.	8b-\J	.	.
!	!	!LO:LB:g=original	!	!	!	!	!	!	!
=13	=13	=13	=13	=13	=13	=13	=13	=13	=13
!LO:TX:a:t=1.	!	!LO:TX:a:t=1.	!	!	!	!	!	!	!
1r	.	1r	.	8D\L	4dd\	.	4b-\	1ryy	1ryy
.	.	.	.	8F\	.	.	.	.	.
.	.	.	.	8D\	4dd\	.	4b-\	.	.
.	.	.	.	8F\J	.	.	.	.	.
.	.	.	.	8D\L	4dd\	.	4b-\	.	.
.	.	.	.	8F\	.	.	.	.	.
.	.	.	.	8D\	4dd\	.	4b-\	.	.
!	!	!	!	!LO:TX:a:t=vi	!	!	!	!	!
.	.	.	.	8F\J	.	.	.	.	.
!	!	!	!	!LO:LB:g=original	!	!	!	!	!
=14	=14	=14	=14	=14	=14	=14	=14	=14	=14
4r	.	4r	.	8F\L	4r	.	8a\L	1ryy	1ryy
.	.	.	.	8C\	.	.	8cc\J	.	.
*	*	*	*	*	*2\right	*	*	*	*
!	!	!	!	!LO:SIC:v:s=8AAn	!	!	!	!	!
4f\	.	4f\	.	8AA-\	2cc\	.	2ee-\	.	.
.	.	.	.	8C\J	.	.	.	.	.
4f\	.	4f\	.	8F\L	.	.	.	.	.
.	.	.	.	8C\J	.	.	.	.	.
!	!	!	!	!LO:SIC:v:s=8AAn	!	!	!	!	!
4f\	.	4f\	.	8AA-/L	4cc\	.	4ee-\	.	.
.	.	.	.	8FF/J	.	.	.	.	.
=15	=15	=15	=15	=15	=15	=15	=15	=15	=15
4r	.	4r	.	4BB-\	8cc\L	.	8ee-\L	1ryy	1ryy
.	.	.	.	.	8b-\	.	8dd\	.	.
4B-/	.	4b-\	.	4F\	8ee-\	.	8gg\	.	.
.	.	.	.	.	8dd\J	.	8ff\J	.	.
4B-/	.	4b-\	.	8B-\L	2dd\	.	2ff\	.	.
.	.	.	.	8F\	.	.	.	.	.
4B-/	.	4b-\	.	8D\	.	.	.	.	.
.	.	.	.	8BB-\J	.	.	.	.	.
=16	=16	=16	=16	=16	=16	=16	=16	=16	=16
!	!	!	!	!LO:TX:t=P:problem:tt. 16-17 zapisane repetycją	!	!	!	!	!
4r	.	4r	.	8F\Lyy	4r	.	8a\L	1ryy	1ryy
.	.	.	.	8C\yy	.	.	8cc\J	.	.
!	!	!	!	!LO:SIC:v:s=8AAn	!	!	!	!	!
4f\	.	4f\	.	8AA-\yy	2cc\	.	2ee-\	.	.
.	.	.	.	8C\Jyy	.	.	.	.	.
4f\	.	4f\	.	8F\Lyy	.	.	.	.	.
.	.	.	.	8C\Jyy	.	.	.	.	.
!	!	!	!	!LO:SIC:v:s=8AAn	!	!	!	!	!
4f\	.	4f\	.	8AA-/Lyy	4cc\	.	4ee-\	.	.
.	.	.	.	8FF/Jyy	.	.	.	.	.
=17	=17	=17	=17	=17	=17	=17	=17	=17	=17
4r	.	4r	.	4BB-\yy	8cc\L	.	8ee-\L	1ryy	1ryy
.	.	.	.	.	8b-\	.	8dd\	.	.
4B-/	.	4b-\	.	4F\yy	8ee-\	.	8gg\	.	.
.	.	.	.	.	8dd\J	.	8ff\J	.	.
!	!	!	!	!	!	!	!LO:LB:g=original	!	!
4B-/	.	4b-\	.	8B-\Lyy	2dd\	.	2ff\	.	.
.	.	.	.	8F\yy	.	.	.	.	.
4B-/	.	4b-\	.	8D\yy	.	.	.	.	.
.	.	.	.	8BB-\Jyy	.	.	.	.	.
=18	=18	=18	=18	=18	=18	=18	=18	=18	=18
4B-/	.	4b-\	.	4BB-/	8b-\L	.	8dd\L	1ryy	1ryy
.	.	.	.	.	8cc\	.	8ee-\	.	.
4r	.	4r	.	4BB-/	8dd\	.	8ff\	.	.
.	.	.	.	.	8ee-\J	.	8gg\J	.	.
4B-/	.	4b-\	.	4BB-/	8dd\L	.	8ff\L	.	.
.	.	.	.	.	8ee-\	.	8gg\	.	.
4r	.	4r	.	4BB-/	8cc\	.	8aa\	.	.
.	.	.	.	.	8dd\J	.	8bb-\J	.	.
=19	=19	=19	=19	=19	=19	=19	=19	=19	=19
*	*	*	*	*2\right	*	*	*	*	*
*	*	*	*	*tremolo	*	*	*	*	*
2r	.	2r	.	8E-\L	8ff\L	.	8aa\L	1ryy	1ryy
.	.	.	.	8E-\	8ee-\	.	8gg\	.	.
.	.	.	.	8E-\	8dd\	.	8ff\	.	.
.	.	.	.	8E-\J	8cc\J	.	8ee-\J	.	.
*	*	*	*	*Xtremolo	*	*	*	*	*
!	!	!	!	!LO:TX:t=P:problem:mixed beam	!	!	!	!	!
4B-/	.	4b-\	.	8F\L	4b-\	.	4dd\	.	.
.	.	.	.	8F/	.	.	.	.	.
4f\	.	4f\	.	8FF/	4a\	.	4cc\	.	.
.	.	.	.	8FF/J	.	.	.	.	.
!	!	!	!	!	!LO:LB:g=original	!	!	!	!
=20	=20	=20	=20	=20	=20	=20	=20	=20	=20
4B-/	.	4b-\	.	4BB-/	8b-\L	.	8dd\L	1ryy	1ryy
.	.	.	.	.	8cc\	.	8ee-\	.	.
4r	.	4r	.	4BB-/	8dd\	.	8ff\	.	.
.	.	.	.	.	8ee-\J	.	8gg\J	.	.
4B-/	.	4b-\	.	4BB-/	8dd\L	.	8ff\L	.	.
.	.	.	.	.	8ee-\	.	8gg\	.	.
4r	.	4r	.	4BB-/	8cc\	.	8aa\	.	.
.	.	.	.	.	8dd\J	.	8bb-\J	.	.
=21	=21	=21	=21	=21	=21	=21	=21	=21	=21
*	*	*	*	*tremolo	*	*	*	*	*
2r	.	2r	.	8E-\L	8ff\L	.	8aa\L	1ryy	1ryy
.	.	.	.	8E-\	8ee-\	.	8gg\	.	.
.	.	.	.	8E-\	8dd\	.	8ff\	.	.
.	.	.	.	8E-\J	8cc\J	.	8ee-\J	.	.
*	*	*	*	*Xtremolo	*	*	*	*	*
!	!	!	!	!LO:TX:t=P:problem:mixed beam	!	!	!	!	!
4B-/	.	4b-\	.	8F\L	4b-\	.	4dd\	.	.
.	.	.	.	8F\	.	.	.	.	.
4f\	.	4f\	.	8FF/	4a\	.	4cc\	.	.
.	.	.	.	8FF/J	.	.	.	.	.
!	!	!	!	!LO:LB:g=original	!	!	!	!	!
=22	=22	=22	=22	=22	=22	=22	=22	=22	=22
4B-/	.	4b-\	.	8r	4b-\	.	4b-\	1ryy	1ryy
.	.	.	.	8FF/L	.	.	.	.	.
!	!	!	!	!LO:SIC:v:s=8AAn	!	!	!	!	!
4r	.	4r	.	8AA-/	8r	.	8r	.	.
.	.	.	.	8C/J	8dd\	.	8bb-\	.	.
4f\	.	4f\	.	4F\	8cc\L	.	8aa\L	.	.
.	.	.	.	.	8dd\	.	8bb-\	.	.
4f\	.	4f\	.	4FF/	8ee-\	.	8ccc\	.	.
.	.	.	.	.	8cc\J	.	8aa\J	.	.
=23	=23	=23	=23	=23	=23	=23	=23	=23	=23
4B-/	.	4b-\	.	4BB-/	4dd\	.	4bb-\	1ryy	1ryy
4r	.	4r	.	4r	8r	.	8r	.	.
.	.	.	.	.	8dd\	.	8bb-\	.	.
4f\	.	4f\	.	4F\	8cc\L	.	8aa\L	.	.
.	.	.	.	.	8dd\	.	8bb-\	.	.
4f\	.	4f\	.	4FF/	8ee-\	.	8ccc\	.	.
.	.	.	.	.	8cc\J	.	8aa\J	.	.
!LO:LB:g=original	!	!LO:LB:g=original	!	!	!	!	!LO:LB:g=original	!	!
=24	=24	=24	=24	=24	=24	=24	=24	=24	=24
!	!	!	!	!LO:TX:t=P:problem:mixed beam	!	!	!	!	!
4B-/	.	4b-\	.	8BB-/L	4dd\	.	4bb-\	1ryy	1ryy
.	.	.	.	8B-\	.	.	.	.	.
4B-/	.	4b-\	.	8F\	4dd\	.	4bb-\	.	.
.	.	.	.	8D\J	.	.	.	.	.
4B-/	.	4b-\	.	4BB-/	4dd\	.	4bb-\	.	.
4r	.	4r	.	4r	4r	.	4r	.	.
=25:|!|:	=25:|!|:	=25:|!|:	=25:|!|:	=25:|!|:	=25:|!|:	=25:|!|:	=25:|!|:	=25:|!|:	=25:|!|:
*>B	*	*	*	*	*	*	*	*	*
!	!LO:DY:a	!	!	!LO:TX:t=P:problem:mixed beam	!	!	!	!	!
2B-/	f	2b-\	.	8BB-/L	4d/	.	2b-\	1ryy	1ryy
.	.	.	.	8B-\	.	.	.	.	.
.	.	.	.	8B-\	4d/	.	.	.	.
.	.	.	.	8B-\J	.	.	.	.	.
2r	.	2r	.	8B-\L	4d/	.	4f/	.	.
.	.	.	.	8B-\	.	.	.	.	.
.	.	.	.	8B-\	4d/	.	4b-\	.	.
.	.	.	.	8B-\J	.	.	.	.	.
=26	=26	=26	=26	=26	=26	=26	=26	=26	=26
!	!	!	!	!LO:TX:t=P:problem:mixed beam	!	!	!	!	!
2B-/	.	2b-\	.	8BB-/L	4d/	.	2dd\	1ryy	1ryy
.	.	.	.	8B-\	.	.	.	.	.
.	.	.	.	8B-\	4d/	.	.	.	.
.	.	.	.	8B-\J	.	.	.	.	.
!	!	!	!	!LO:LB:g=original	!	!	!	!	!
2r	.	2r	.	8B-\L	4d/	.	4b-\	.	.
.	.	.	.	8B-\	.	.	.	.	.
.	.	.	.	8B-\	4d/	.	4dd\	.	.
.	.	.	.	8B-\J	.	.	.	.	.
!	!	!	!	!	!LO:LB:g=original	!	!	!	!
=27	=27	=27	=27	=27	=27	=27	=27	=27	=27
!	!	!	!	!LO:TX:t=P:problem:mixed beam	!	!	!	!	!
2B-/	.	2b-\	.	8BB-/L	4d/	.	2ff\	1ryy	1ryy
.	.	.	.	8B-\	.	.	.	.	.
.	.	.	.	8B-\	4d/	.	.	.	.
.	.	.	.	8B-\J	.	.	.	.	.
2r	.	2r	.	8B-\L	4d/	.	8ee-\L	.	.
.	.	.	.	8B-\	.	.	8dd\	.	.
.	.	.	.	8B-\	4d/	.	8cc\	.	.
.	.	.	.	8B-\J	.	.	8b-\J	.	.
=28	=28	=28	=28	=28	=28	=28	=28	=28	=28
4r	.	4r	.	4F\	4c/	.	4a\	1ryy	1ryy
4f\	.	4f\	.	4F\	4c/	.	4a\	.	.
4f\	.	4f\	.	4C/	4c/	.	4a\	.	.
!	!	!	!	!LO:SIC:v:s=4AAn	!	!	!	!	!
4f\	.	4f\	.	4AA-/	4c/	.	4a\	.	.
=29	=29	=29	=29	=29	=29	=29	=29	=29	=29
!	!	!	!	!	!	!	!LO:SIC:v:s=2bn	!	!
2f\	.	2f\	.	4FF/	4c/	.	2a-\	1ryy	1ryy
.	.	.	.	4F\	4c/	.	.	.	.
2r	.	2r	.	4FF/	4c/	.	4r	.	.
.	.	.	.	4r	4r	.	4f/	.	.
=30	=30	=30	=30	=30	=30	=30	=30	=30	=30
!	!	!	!	!LO:TX:t=P:problem:mixed beam	!	!	!	!	!
2f\	.	2f\	.	8FF/L	4f/	.	2f/	1ryy	1ryy
.	.	.	.	8F\	.	.	.	.	.
.	.	.	.	8F\	4f/	.	.	.	.
.	.	.	.	8F\J	.	.	.	.	.
2r	.	2r	.	8F\L	4f/	.	4a\	.	.
.	.	.	.	8F\	.	.	.	.	.
.	.	.	.	8F\	4f/	.	4cc\	.	.
.	.	.	.	8F\J	.	.	.	.	.
=31	=31	=31	=31	=31	=31	=31	=31	=31	=31
!	!	!	!	!LO:TX:t=P:problem:mixed beam	!	!	!	!	!
2f\	.	2f\	.	8FF/L	4f/	.	2ee-\	1ryy	1ryy
.	.	.	.	8F\	.	.	.	.	.
.	.	.	.	8F\	4f/	.	.	.	.
.	.	.	.	8F/J	.	.	.	.	.
2r	.	2r	.	8F\L	4f/	.	8ee-\L	.	.
.	.	.	.	8F\	.	.	16dd\L	.	.
.	.	.	.	.	.	.	16ee-\JJ	.	.
.	.	.	.	8F\	4f/	.	16ff\LL	.	.
.	.	.	.	.	.	.	16ee-\	.	.
.	.	.	.	8F\J	.	.	16dd\	.	.
.	.	.	.	.	.	.	16cc\JJ	.	.
=32	=32	=32	=32	=32	=32	=32	=32	=32	=32
4r	.	4r	.	4BB-/	4d/	.	4b-\	1ryy	1ryy
4B-/	.	4b-\	.	4B-\	4d/	.	4b-\	.	.
4B-/	.	4b-\	.	4F\	4d/	.	4b-\	.	.
4B-/	.	4b-\	.	4D\	4d/	.	4b-\	.	.
!	!	!	!	!LO:LB:g=original	!	!	!LO:LB:g=original	!	!
=33	=33	=33	=33	=33	=33	=33	=33	=33	=33
2B-/	.	2b-\	.	4BB-/	4d/	.	2b-\	1ryy	1ryy
.	.	.	.	4B-\	4d/	.	.	.	.
2r	.	2r	.	4BB-/	4d/	.	4r	.	.
.	.	.	.	4r	4r	.	4ff\	.	.
=34	=34	=34	=34	=34	=34	=34	=34	=34	=34
!	!	!	!	!LO:TX:t=P:problem:mixed beam	!	!	!	!	!
2B-/	.	2b-\	.	8BB-/L	4dd\	.	2ff\	1ryy	1ryy
.	.	.	.	8B-\	.	.	.	.	.
.	.	.	.	8B-\	4dd\	.	.	.	.
.	.	.	.	8B-\J	.	.	.	.	.
2r	.	2r	.	8B-\L	4dd\	.	4dd\	.	.
.	.	.	.	8B-\	.	.	.	.	.
.	.	.	.	8B-\	4b-\	.	4b-\	.	.
.	.	.	.	8B-\J	.	.	.	.	.
=35	=35	=35	=35	=35	=35	=35	=35	=35	=35
!	!	!	!	!LO:TX:t=P:problem:mixed beam	!	!	!	!	!
2B-/	.	2b-\	.	8BB-\L	4dd\	.	2bb-\	1ryy	1ryy
.	.	.	.	8B-\	.	.	.	.	.
.	.	.	.	8B-\	4dd\	.	.	.	.
.	.	.	.	8B-\J	.	.	.	.	.
2r	.	2r	.	8B-\L	4ee-\	.	4gg\	.	.
.	.	.	.	8B-\	.	.	.	.	.
.	.	.	.	8B-\	4cc\	.	4ee-\	.	.
.	.	.	.	8B-\J	.	.	.	.	.
=36	=36	=36	=36	=36	=36	=36	=36	=36	=36
2r	.	2r	.	8BB-/L	4dd\	.	4ff\	1ryy	1ryy
.	.	.	.	8BB-/	.	.	.	.	.
.	.	.	.	8E-/	8ee-\L	.	8gg\L	.	.
.	.	.	.	8E-/J	8cc\J	.	8ee-\J	.	.
!	!	!	!	!LO:TX:t=P:problem:mixed beam	!	!	!	!	!
4B-/	.	4b-\	.	8F\L	4b-\	.	4dd\	.	.
.	.	.	.	8F/	.	.	.	.	.
4f\	.	4f\	.	8FF/	4a\	.	4cc\	.	.
.	.	.	.	8FF/J	.	.	.	.	.
!	!	!LO:LB:g=original	!	!	!LO:LB:g=original	!	!	!	!
=37	=37	=37	=37	=37	=37	=37	=37	=37	=37
!	!	!	!	!LO:TX:t=P:problem:mixed beam	!	!	!	!	!
2B-/	.	2b-\	.	8BB-/L	4dd\	.	2ff\	1ryy	1ryy
.	.	.	.	8B-\	.	.	.	.	.
.	.	.	.	8B-\	4dd\	.	.	.	.
.	.	.	.	8B-\J	.	.	.	.	.
2r	.	2r	.	8B-\L	4dd\	.	4dd\	.	.
.	.	.	.	8B-\	.	.	.	.	.
.	.	.	.	8B-\	4b-\	.	4b-\	.	.
.	.	.	.	8B-\J	.	.	.	.	.
!LO:LB:g=original	!	!	!	!	!	!	!	!	!
=38	=38	=38	=38	=38	=38	=38	=38	=38	=38
!	!	!	!	!LO:TX:t=P:problem:mixed beam	!	!	!	!	!
2B-/	.	2b-\	.	8BB-/L	4dd\	.	2bb-\	1ryy	1ryy
.	.	.	.	8B-\	.	.	.	.	.
.	.	.	.	8B-\	4dd\	.	.	.	.
.	.	.	.	8B-\J	.	.	.	.	.
2r	.	2r	.	8B-\L	4ee-\	.	4gg\	.	.
.	.	.	.	8B-\	.	.	.	.	.
.	.	.	.	8B-\	4cc\	.	4ee-\	.	.
.	.	.	.	8B-\J	.	.	.	.	.
!	!	!	!	!LO:LB:g=original	!	!	!	!	!
=39	=39	=39	=39	=39	=39	=39	=39	=39	=39
2r	.	2r	.	8BB-/L	4dd\	.	4ff\	1ryy	1ryy
.	.	.	.	8BB-/	.	.	.	.	.
.	.	.	.	8E-/	8ee-\L	.	8gg\L	.	.
!	!	!	!	!	!LO:TX:a:t=d	!	!	!	!
.	.	.	.	8E-/J	8cc\J	.	8ee-\J	.	.
!	!	!	!	!LO:TX:t=P:problem:mixed beam	!	!	!	!	!
4B-/	.	4b-\	.	8F\L	4b-\	.	4dd\	.	.
.	.	.	.	8F\	.	.	.	.	.
!	!	!	!	!	!LO:TX:a:t=h	!	!	!	!
4f\	.	4f\	.	8FF/	4a\	.	4cc\	.	.
.	.	.	.	8FF/J	.	.	.	.	.
=40	=40	=40	=40	=40	=40	=40	=40	=40	=40
4B-/	.	4b-\	.	4BB-/	4b-\	.	4b-\	1ryy	1ryy
4r	.	4r	.	4r	8b-\L	.	8b-\L	.	.
.	.	.	.	.	8a\J	.	8cc\J	.	.
4B-/	.	4b-\	.	4BB-/	4b-\	.	4dd\	.	.
4r	.	4r	.	4r	8b-\L	.	8dd\L	.	.
.	.	.	.	.	8cc\J	.	8ee-\J	.	.
=41	=41	=41	=41	=41	=41	=41	=41	=41	=41
4B-/	.	4b-\	.	4BB-/	4dd\	.	4ff\	1ryy	1ryy
4r	.	4r	.	4r	8dd\L	.	8ff\L	.	.
.	.	.	.	.	8ee-\J	.	8gg\J	.	.
4B-/	.	4r	.	4B-\	4ff\	.	4aa-X\	.	.
4B-/	.	4b-\	.	4B-\	4ff\	.	4aa-\	.	.
!	!	!	!	!	!	!	!LO:LB:g=original	!	!
=42	=42	=42	=42	=42	=42	=42	=42	=42	=42
!	!	!	!	!	!	!LO:DY:rj	!	!	!
1B-/;	.	1b-\;	.	1B-\;	1ff\;	f	1aa-\;;	1ryy	1ryy
=43	=43	=43	=43	=43	=43	=43	=43	=43	=43
!LO:TX:a:t=1.	!	!LO:TX:a:t=1.	!	!LO:TX:t=P:problem:mixed beam	!	!	!	!	!
1r	.	1r	.	8EE-/L	2ee-\	.	2gg\	1ryy	1ryy
.	.	.	.	8E-\	.	.	.	.	.
.	.	.	.	8E-\	.	.	.	.	.
.	.	.	.	8E-\J	.	.	.	.	.
!	!	!	!	!LO:TX:t=P:problem:mixed beam	!	!	!	!	!
.	.	.	.	8EE-/L	4cc\	.	4aa\	.	.
.	.	.	.	8E-\	.	.	.	.	.
.	.	.	.	8E-\	4dd\	.	4bb-\	.	.
.	.	.	.	8E-\J	.	.	.	.	.
=44	=44	=44	=44	=44	=44	=44	=44	=44	=44
2B-/	.	2b-\	.	4B-\	2b-\	.	2dd\	1ryy	1ryy
.	.	.	.	4BB-/	.	.	.	.	.
!	!	!	!	!	!LO:TX:a:t=h	!	!	!	!
2f\	.	2f\	.	4F\	2a\	.	2ccT\	.	.
.	.	.	.	4FF/	.	.	.	.	.
=45	=45	=45	=45	=45	=45	=45	=45	=45	=45
!	!	!	!	!LO:TX:a:t=Solo	!	!	!	!	!
4B-/	.	4b-\	.	8BB-/L	4b-\	.	4b-\	1ryy	1ryy
.	.	.	.	8BB-/	.	.	.	.	.
4r	.	4r	.	8D/	4r	.	4r	.	.
.	.	.	.	8BB-/J	.	.	.	.	.
!	!	!	!	!LO:TX:t=P:problem:mixed beam	!	!	!	!	!
4r	.	4r	.	8E-\L	4r	.	4r	.	.
.	.	.	.	8C\	.	.	.	.	.
4f\	.	4f\	.	8F\	4a\	.	4cc\	.	.
.	.	.	.	8FF/J	.	.	.	.	.
!	!	!	!	!	!LO:LB:g=original	!	!	!	!
=46	=46	=46	=46	=46	=46	=46	=46	=46	=46
4B-/	f	4b-\	.	8BB-/L	4b-\	.	4b-\	1ryy	1ryy
.	.	.	.	8BB-/	.	.	.	.	.
4r	.	4r	.	8D/	4r	.	4r	.	.
.	.	.	.	8BB-/J	.	.	.	.	.
!	!	!	!	!LO:LB:g=original	!	!	!	!	!
!	!	!	!	!LO:TX:t=P:problem:mixed beam	!	!	!	!	!
4r	.	4r	.	8E-\L	4r	.	4r	.	.
.	.	.	.	8C\	.	.	.	.	.
4f\	.	4f\	.	8F\	4a\	.	4cc\	.	.
.	.	.	.	8FF/J	.	.	.	.	.
=47	=47	=47	=47	=47	=47	=47	=47	=47	=47
!	!	!	!	!LO:TX:t=P:problem:mixed beam	!	!	!	!	!
4B-/	.	4b-\	.	8BB-/L	4b-\	.	4b-\	1ryy	1ryy
.	.	.	.	8B-\	.	.	.	.	.
4B-/	.	4b-\	.	8F\	4d/	.	4b-\	.	.
.	.	.	.	8D\J	.	.	.	.	.
4B-/	.	4b-\	.	4BB-/	4d/	.	4b-\	.	.
4r	.	4r	.	4r	4r	.	4r	.	.
=48	=48	=48	=48	=48	=48	=48	=48	=48	=48
!	!LO:DY:a	!	!	!	!	!	!	!	!
4E-/	f	4e-\	.	4E-\	4e-/	.	4ee-\	1ryy	1ryy
4E-/	.	4e-\	.	4E-\	4e-/	.	4ee-\	.	.
4E-/	.	4e-\	.	4E-\	4e-/	.	4ee-\	.	.
4r	.	4r	.	8D\L	8d/L	.	8dd\L	.	.
.	.	.	.	8E-\J	8e-/J	.	8ee-\J	.	.
!	!	!LO:LB:g=original	!	!	!	!	!	!	!
=49	=49	=49	=49	=49	=49	=49	=49	=49	=49
4B-/	.	4f\	.	4F\	4f/	.	4ff\	1ryy	1ryy
4B-/	.	4f\	.	4D\	4d/	.	4dd\	.	.
4B-/	.	4f\	.	4BB-\	4B-/	.	4b-\	.	.
4r	.	4r	.	8r	8r	.	8r	.	.
!	!	!	!	!	!LO:N:vis=4	!	!	!	!
.	.	.	.	8BB-/	8B-/	.	8b-\	.	.
=50	=50	=50	=50	=50	=50	=50	=50	=50	=50
4B-/	.	4f\	.	4F\	4f/	.	4ff\	1ryy	1ryy
4B-/	.	4f\	.	4F\	4f/	.	4ff\	.	.
4B-/	.	4f\	.	4F\	4f/	.	4ff\	.	.
4r	.	4r	.	8F\L	8e-/L	.	8ee-\L	.	.
.	.	.	.	8E-\J	8f/J	.	8ff\J	.	.
!LO:LB:g=original	!	!	!	!	!	!	!LO:LB:g=original	!	!
=51	=51	=51	=51	=51	=51	=51	=51	=51	=51
4E-/	.	4e-\	.	4G\	4g/	.	4gg\	1ryy	1ryy
4E-/	.	4e-\	.	4E-\	4e-/	.	4ee-\	.	.
4E-/	.	4e-\	.	4BB-/	4B-/	.	4b-\	.	.
4r	.	4r	.	4r	4r	.	8r	.	.
.	.	.	.	.	.	.	8b-\	.	.
!	!	!	!	!LO:LB:g=original	!	!	!	!	!
=52	=52	=52	=52	=52	=52	=52	=52	=52	=52
!	!	!	!LO:DY:a	!LO:TX:t=P:problem:mixed beam	!	!	!	!	!
4G/	.	4e-\	p	8EE-/L	4g/	.	4ee-\	1ryy	1ryy
.	.	.	.	8E-\	.	.	.	.	.
4G/	.	4e-\	.	8E-\	4g/	.	4ee-\	.	.
.	.	.	.	8E-/J	.	.	.	.	.
2G/	.	2e-\	.	8E-\L	2g/	.	4ee-\	.	.
.	.	.	.	8E-\	.	.	.	.	.
.	.	.	.	8E-\	.	.	4b-\	.	.
.	.	.	.	8E-\J	.	.	.	.	.
=53	=53	=53	=53	=53	=53	=53	=53	=53	=53
!	!LO:DY:a	!	!LO:DY:a	!LO:TX:t=P:problem:mixed beam	!	!	!	!	!
2E-/	f	2e-\	f	8AA-/L	1a-/	.	4.cc\	1ryy	1ryy
.	.	.	.	8AA-/	.	.	.	.	.
.	.	.	.	8A-\	.	.	.	.	.
.	.	.	.	8A-\J	.	.	8aa-\	.	.
!	!	!	!	!LO:TX:t=P:problem:mixed beam	!	!	!	!	!
2E-/	.	2e-\	.	8B-\L	.	.	8gg\L	.	.
.	.	.	.	8B-\	.	.	8ff\	.	.
.	.	.	.	8BB-/	.	.	8ee-\	.	.
.	.	.	.	8BB-/J	.	.	8dd\J	.	.
!	!	!	!	!LO:LB:g=original	!	!	!	!	!
=54	=54	=54	=54	=54	=54	=54	=54	=54	=54
!	!	!	!	!LO:TX:t=P:problem:mixed beam	!LO:TX:t=P:problem:tt. 54-55 zapisane repetycją	!	!	!	!
4G/	.	4e-\	.	8EE-/L	4g/yy	.	4ee-\	1ryy	1ryy
.	.	.	.	8E-\	.	.	.	.	.
4G/	.	4e-\	.	8E-\	4g/yy	.	4ee-\	.	.
.	.	.	.	8E-\J	.	.	.	.	.
2G/	.	2e-\	.	8E-\L	2g/yy	.	4ee-\	.	.
.	.	.	.	8E-\	.	.	.	.	.
.	.	.	.	8E-\	.	.	4b-\	.	.
.	.	.	.	8E-\J	.	.	.	.	.
=55	=55	=55	=55	=55	=55	=55	=55	=55	=55
!	!LO:DY:a	!	!LO:DY:a:rj	!LO:TX:t=P:problem:mixed beam	!	!	!	!	!
2E-/	f	2e-\	p	8AA-/L	1a-yy/	.	4.cc\	1ryy	1ryy
.	.	.	.	8AA-/	.	.	.	.	.
.	.	.	.	8A-\	.	.	.	.	.
.	.	.	.	8A-\J	.	.	8aa-\	.	.
!	!	!	!	!LO:TX:t=P:problem:mixed beam	!	!	!	!	!
2E-/	.	2e-\	.	8B-\L	.	.	8gg\L	.	.
.	.	.	.	8B-\	.	.	8ff\	.	.
.	.	.	.	8BB-/	.	.	8ee-\	.	.
.	.	.	.	8BB-/J	.	.	8dd\J	.	.
=56	=56	=56	=56	=56	=56	=56	=56	=56	=56
!	!	!	!LO:DY:a	!	!	!	!	!	!
4E-/	.	4e-\	f	4E-\	4g/	.	4ee-\	1ryy	1ryy
4G/	.	4g\	.	4G\	4g/	.	4gg\	.	.
2B-/	.	2b-\	.	8B-\L	2b-\	.	2bb-\	.	.
.	.	.	.	8B-\	.	.	.	.	.
.	.	.	.	8B-\	.	.	.	.	.
.	.	.	.	8B-\J	.	.	.	.	.
!	!	!	!	!LO:LB:g=original	!	!	!	!	!
=57	=57	=57	=57	=57	=57	=57	=57	=57	=57
2G/	.	2e-\	.	8E-\L	2e-/	.	2g/	1ryy	1ryy
.	.	.	.	8E-\	.	.	.	.	.
.	.	.	.	8E-\	.	.	.	.	.
.	.	.	.	8E-\J	.	.	.	.	.
2B-/	.	2g\	.	8BB-/L	2d/	.	2fT/	.	.
.	.	.	.	8BB-/	.	.	.	.	.
.	.	.	.	8BB-/	.	.	.	.	.
.	.	.	.	8BB-/J	.	.	.	.	.
!	!	!	!	!	!LO:LB:g=original	!	!	!	!
=58	=58	=58	=58	=58	=58	=58	=58	=58	=58
4G/	.	4e-\	.	4E-\	8e-/L	.	8g/L	1ryy	1ryy
.	.	.	.	.	8f/	.	8a-/	.	.
4r	.	4r	.	4E-\	8g/	.	8b-/	.	.
.	.	.	.	.	8a-/J	.	8cc/J	.	.
4E-/	.	4e-\	.	4E-\	8g/L	.	8b-/L	.	.
.	.	.	.	.	8a-/	.	8cc/	.	.
4r	.	4r	.	4E-\	8f/	.	8dd/	.	.
.	.	.	.	.	8g/J	.	8ee-/J	.	.
=59	=59	=59	=59	=59	=59	=59	=59	=59	=59
*	*	*	*	*tremolo	*	*	*	*	*
2r	.	2r	.	8A-\L	8b-/L	.	8dd\L	1ryy	1ryy
.	.	.	.	8A-\	8a-/	.	8cc\	.	.
.	.	.	.	8A-\	8g/	.	8b-\	.	.
.	.	.	.	8A-\J	8f/J	.	8a-\J	.	.
*	*	*	*	*Xtremolo	*	*	*	*	*
!	!	!	!	!	!	!	!LO:LB:g=original	!	!
!	!	!	!	!LO:TX:t=P:problem:mixed beam	!	!	!	!	!
4G/	.	4e-\	.	8B-\L	4e-/	.	4g/	.	.
.	.	.	.	8B-\	.	.	.	.	.
4B-/	.	4f\	.	8BB-/	4d/	.	4f/	.	.
.	.	.	.	8BB-\J	.	.	.	.	.
!	!	!LO:LB:g=original	!	!	!	!	!	!	!
=60	=60	=60	=60	=60	=60	=60	=60	=60	=60
4G/	.	4e-\	.	4EE-/	8e-/L	.	8g/L	1ryy	1ryy
.	.	.	.	.	8f/	.	8a-/	.	.
4r	.	4r	.	4E-\	8g/	.	8b-/	.	.
.	.	.	.	.	8a-/J	.	8cc/J	.	.
4E-/	.	4e-\	.	4E-\	8g/L	.	8b-\L	.	.
.	.	.	.	.	8a-/	.	8cc\	.	.
4r	.	4r	.	4E-\	8f/	.	8dd\	.	.
.	.	.	.	.	8g/J	.	8ee-\J	.	.
=61	=61	=61	=61	=61	=61	=61	=61	=61	=61
2r	.	2r	.	2A-\	8b-/L	.	8dd\L	1ryy	1ryy
.	.	.	.	.	8a-/	.	8cc\	.	.
.	.	.	.	.	8g/	.	8b-\	.	.
.	.	.	.	.	8f/J	.	8a-\J	.	.
!	!	!	!	!LO:TX:t=P:problem:mixed beam	!	!	!	!	!
4G/	.	4e-\	.	8B-\L	4e-/	.	4g/	.	.
.	.	.	.	8B-\	.	.	.	.	.
4B-/	.	4f\	.	8BB-/	4d/	.	4f/	.	.
.	.	.	.	8BB-/J	.	.	.	.	.
=62	=62	=62	=62	=62	=62	=62	=62	=62	=62
4G/	.	4e-\	.	4E-\	4e-/	.	4e-/	1ryy	1ryy
4r	.	4r	.	4r	8r	.	8r	.	.
.	.	.	.	.	8g/	.	8ee-\	.	.
4r	.	4f\	.	4B-\	8f/L	.	8dd\L	.	.
.	.	.	.	.	8g/	.	8ee-\	.	.
4B-/	.	4f\	.	4r	8a-/	.	8ff\	.	.
.	.	.	.	.	8f/J	.	8dd\J	.	.
!LO:LB:g=original	!	!	!	!	!	!	!	!	!
=63	=63	=63	=63	=63	=63	=63	=63	=63	=63
4e-\	.	4g\	.	4E-\	4g/	.	4ee-\	1ryy	1ryy
4r	.	4r	.	4r	4r	.	8r	.	.
.	.	.	.	.	.	.	8ee-\	.	.
4B-/	.	4f\	.	4B-\	8f/L	.	8dd\L	.	.
.	.	.	.	.	8g/	.	8ee-\	.	.
4B-/	.	4f\	.	4BB-/	8a-/	.	8ff\	.	.
.	.	.	.	.	8f/J	.	8dd\J	.	.
=64	=64	=64	=64	=64	=64	=64	=64	=64	=64
.	.	.	.	.	.	.	8qqff/	.	.
4G/	.	4e-\	.	8E-/L	4g/	.	4ee-\	1ryy	1ryy
.	.	.	.	8E-/	.	.	.	.	.
4G/	.	4e-\	.	8BB-/	4g/	.	4ee-\	.	.
.	.	.	.	8GG/J	.	.	.	.	.
!	!	!	!	!LO:N:vis=8	!	!	!	!	!
4G/	.	4e-\	.	4EE-/	4g/	.	4ee-\	.	.
4r	.	4r	.	4r	4r	.	4r	.	.
=:|!	=:|!	=:|!	=:|!	=:|!	=:|!	=:|!	=:|!	=:|!	=:|!
*-	*-	*-	*-	*-	*-	*-	*-	*-	*-
!!!system-decoration: [(s1,s2,s3,s4,s5)][(s6,s7)]
!!!RDF**dynam: < = cres
!!!ENC: Krzysztof Stępień
!!!END: 2021-06-17
!!!EED: Leszek Kubiak
!!!EST: 2021-06-28
